X: 1
T: COLBERTH'S -- HORNPIPE
B: Cole's 1000 Fiddle Tunes
R: hornpipe
M: 2/4
L: 1/16
Z: Contributed 20000424011320 by John Chambers jc:trillian.mit.edu
K: G
(uiBc) \
| dgfe .d2(Bc) | dgfe .d2(Bc) | dBGB edBc | dBGB .A2(Bc) |
| dgfe .d2(Bc) | dgfe .d2(Bc) | dBgd ecAF | G2G2G2 :|
|:(udc) \
| v.B(uGDG) BGDG | .B(GDG) .d2(ucB) | .c(AFA) DAFA | DAFA .c2(uBA) |
| .B(GDG) BGDG | .B(GDG) .d2(ucB) | ABce dcBA | G2G2G2 :|
